resources/assets/icons/brands/coin-gecko.svg

<svg width="20" height="21" viewBox="0 0 20 21" fill="none" xmlns="http://www.w3.org/2000/svg">
<g clip-path="url(#clip0_2685_253855)">
<path d="M19.9999 10.5426C20.0086 12.5204 19.4307 14.4563 18.3391 16.1056C17.2476 17.7549 15.6915 19.0435 13.8676 19.8085C12.0437 20.5734 10.0339 20.7803 8.09245 20.403C6.15096 20.0258 4.36495 19.0813 2.96026 17.6889C1.55557 16.2966 0.595301 14.519 0.200876 12.5809C-0.19355 10.6429 -0.00441482 8.63134 0.744365 6.80076C1.49314 4.97017 2.76794 3.40273 4.40754 2.29665C6.04715 1.19057 7.97792 0.59553 9.9557 0.586768V0.586768C11.2689 0.58095 12.5704 0.833851 13.7859 1.33103C15.0014 1.82821 16.1071 2.55993 17.0397 3.48442C17.9724 4.4089 18.7139 5.50804 19.2218 6.71908C19.7297 7.93012 19.9941 9.22934 19.9999 10.5426Z" fill="#637282"/>
<path d="M19.2509 10.5465C19.2599 12.3758 18.7262 14.1667 17.7173 15.6927C16.7084 17.2187 15.2697 18.4112 13.583 19.1194C11.8963 19.8276 10.0375 20.0197 8.24161 19.6714C6.44573 19.3231 4.79348 18.4501 3.49383 17.1627C2.19417 15.8753 1.3055 14.2314 0.94019 12.4389C0.574884 10.6464 0.749361 8.78587 1.44155 7.09254C2.13375 5.39922 3.31256 3.94921 4.8289 2.92589C6.34525 1.90258 8.131 1.35193 9.96032 1.3436V1.3436C12.4125 1.33281 14.7685 2.29613 16.5107 4.02183C18.2528 5.74753 19.2384 8.09437 19.2509 10.5465V10.5465Z" fill="#212225"/>
<path d="M10.1726 1.9391C10.7605 1.83475 11.3622 1.83475 11.9501 1.9391C12.5437 2.03322 13.1175 2.22546 13.648 2.50795C14.1755 2.7978 14.6313 3.19128 15.0849 3.56012C15.5385 3.92896 15.99 4.3065 16.4197 4.71954C16.8584 5.12611 17.2412 5.58909 17.5581 6.09635C17.8843 6.59963 18.1518 7.13866 18.3552 7.70287C18.7414 8.83765 18.8755 10.0601 18.6827 11.2261H18.6255C18.432 10.0703 18.1697 8.96881 17.7559 7.92099C17.5617 7.39429 17.3332 6.88087 17.0719 6.38403C16.7993 5.88442 16.4989 5.40056 16.1719 4.93476C15.8395 4.46555 15.4321 4.05425 14.9661 3.71737C14.4965 3.38258 13.9567 3.16592 13.4342 2.96012C12.9117 2.75432 12.3936 2.54345 11.8487 2.38693C11.3038 2.23041 10.7501 2.11302 10.1719 1.99925L10.1726 1.9391Z" fill="#C4C8CF"/>
<path d="M14.6903 7.28208C14.0193 7.08788 13.3236 6.81252 12.6193 6.53426C12.5787 6.35744 12.4222 6.13715 12.1055 5.86831C11.6454 5.46904 10.7809 5.47918 10.0338 5.65599C9.20914 5.46179 8.39464 5.39295 7.61276 5.58353C1.21783 7.34512 4.84392 11.643 2.49609 15.9632C2.83015 16.6719 6.43088 20.8067 11.641 19.6973C11.641 19.6973 9.85914 15.4154 13.8802 13.3603C17.1417 11.6872 19.4983 8.5915 14.6903 7.28208Z" fill="#637282"/>
<path d="M15.4824 10.094C15.4828 10.1707 15.4605 10.2458 15.4183 10.3098C15.376 10.3737 15.3157 10.4238 15.2451 10.4535C15.1744 10.4832 15.0965 10.4914 15.0212 10.4768C14.9459 10.4623 14.8766 10.4258 14.8221 10.3718C14.7676 10.3179 14.7303 10.2491 14.7149 10.1739C14.6995 10.0988 14.7068 10.0208 14.7357 9.94983C14.7647 9.87883 14.814 9.818 14.8775 9.77504C14.941 9.73209 15.0159 9.70893 15.0925 9.7085C15.1953 9.70811 15.294 9.74847 15.3671 9.82072C15.4402 9.89298 15.4816 9.99125 15.4824 10.094Z" fill="white"/>
<path d="M10.0312 5.65272C10.4972 5.68605 12.182 6.23243 12.6168 6.53098C12.2544 5.48025 11.0349 5.3404 10.0312 5.65272Z" fill="#637282"/>
<path d="M10.4792 8.31014C10.4793 8.66386 10.3746 9.00967 10.1782 9.30385C9.98177 9.59803 9.70255 9.82737 9.37582 9.96286C9.04908 10.0984 8.68951 10.1339 8.34256 10.0651C7.99562 9.99619 7.67688 9.82599 7.42667 9.57597C7.17646 9.32596 7.006 9.00737 6.93685 8.66048C6.8677 8.31359 6.90297 7.95399 7.0382 7.62714C7.17343 7.3003 7.40254 7.0209 7.69656 6.82426C7.99059 6.62763 8.33631 6.5226 8.69003 6.52246V6.52246C9.16409 6.52246 9.61876 6.71068 9.95411 7.04576C10.2895 7.38084 10.4781 7.83535 10.4784 8.30942L10.4792 8.31014Z" fill="white"/>
<path d="M9.94563 8.32609C9.94563 8.57489 9.87185 8.8181 9.73362 9.02498C9.5954 9.23185 9.39893 9.39309 9.16906 9.4883C8.9392 9.58351 8.68626 9.60842 8.44224 9.55988C8.19822 9.51135 7.97407 9.39153 7.79814 9.2156C7.62221 9.03967 7.5024 8.81553 7.45386 8.5715C7.40532 8.32748 7.43023 8.07455 7.52545 7.84468C7.62066 7.61482 7.7819 7.41835 7.98877 7.28012C8.19564 7.14189 8.43886 7.06812 8.68766 7.06812C9.02129 7.06812 9.34126 7.20065 9.57718 7.43657C9.8131 7.67248 9.94563 7.99245 9.94563 8.32609Z" fill="#212225"/>
<path d="M16.929 10.8827C15.4798 11.9037 13.8319 12.6783 11.4943 12.6783C10.4 12.6783 10.1783 11.5189 9.45512 12.0856C9.08193 12.3798 7.76599 13.0377 6.72179 12.9877C5.67758 12.9377 3.98483 12.3261 3.51309 10.0964C3.32613 12.3261 3.23048 13.9674 2.39062 15.8493C4.05729 18.5182 8.03121 20.5769 11.6385 19.6899C11.2537 16.9834 13.6225 14.3327 14.9515 12.9783C15.4587 12.4646 16.4225 11.6261 16.929 10.8834V10.8827Z" fill="#637282"/>
<path d="M16.8705 10.9492C16.4205 11.3594 15.885 11.663 15.3401 11.9311C14.7884 12.1927 14.2134 12.4021 13.6227 12.5565C13.0314 12.7094 12.4147 12.8246 11.7901 12.7681C11.1655 12.7115 10.527 12.4992 10.1133 12.0311L10.1328 12.0086C10.6401 12.3376 11.2256 12.4536 11.8082 12.4702C12.3988 12.4884 12.9895 12.4398 13.5691 12.3253C14.1546 12.2026 14.7274 12.0255 15.2799 11.7963C15.8328 11.5681 16.3799 11.3036 16.851 10.9268L16.8705 10.9492Z" fill="#212225"/>
</g>
<defs>
<clipPath id="clip0_2685_253855">
<rect width="20" height="20" fill="white" transform="translate(0 0.586914)"/>
</clipPath>
</defs>
</svg>

<svg width="20" height="21" fill="none" xmlns="http://www.w3.org/2000/svg"><path d="M20 10.543A10 10 0 119.956.587 10 10 0 0120 10.543z" fill="#637282"/><path d="M19.25 10.546a9.249 9.249 0 11-9.29-9.202 9.25 9.25 0 019.29 9.202z" fill="#212225"/><path d="M10.173 1.94a5.085 5.085 0 011.777 0 5.417 5.417 0 011.698.568c.527.29.983.683 1.437 1.052.454.369.905.746 1.335 1.16.438.406.821.87 1.138 1.376.326.504.594 1.043.797 1.607.386 1.135.52 2.357.328 3.523h-.058c-.193-1.156-.455-2.257-.87-3.305a12.858 12.858 0 00-.683-1.537c-.273-.5-.573-.983-.9-1.45a5.24 5.24 0 00-1.206-1.217c-.47-.334-1.01-.551-1.532-.757-.522-.206-1.04-.417-1.585-.573a20.094 20.094 0 00-1.677-.388v-.06z" fill="#C4C8CF"/><path d="M14.69 7.282c-.67-.194-1.366-.47-2.07-.748-.041-.177-.198-.397-.514-.666-.46-.399-1.325-.389-2.072-.212-.825-.194-1.64-.263-2.421-.072-6.395 1.761-2.77 6.059-5.117 10.38.334.708 3.935 4.843 9.145 3.733 0 0-1.782-4.282 2.24-6.337 3.26-1.673 5.617-4.768.81-6.078z" fill="#637282"/><path d="M15.482 10.094a.388.388 0 11-.776.004.388.388 0 01.776-.004z" fill="#fff"/><path d="M10.031 5.653c.466.033 2.151.58 2.586.878-.363-1.05-1.582-1.19-2.586-.878z" fill="#637282"/><path d="M10.48 8.31a1.789 1.789 0 11-1.79-1.788 1.788 1.788 0 011.788 1.787l.001.001z" fill="#fff"/><path d="M9.946 8.326a1.258 1.258 0 11-2.516 0 1.258 1.258 0 012.516 0z" fill="#212225"/><path d="M16.929 10.883c-1.45 1.02-3.097 1.795-5.435 1.795-1.094 0-1.316-1.16-2.039-.592-.373.294-1.689.952-2.733.902-1.044-.05-2.737-.662-3.209-2.892-.187 2.23-.283 3.871-1.122 5.753 1.666 2.67 5.64 4.728 9.248 3.84-.385-2.706 1.984-5.356 3.313-6.71.507-.514 1.47-1.353 1.977-2.096z" fill="#637282"/><path d="M16.87 10.95c-.45.41-.985.713-1.53.981a9.783 9.783 0 01-1.717.626c-.592.152-1.208.268-1.833.211-.624-.057-1.263-.269-1.677-.737l.02-.022c.507.329 1.093.445 1.675.461a7.84 7.84 0 001.761-.145 9.608 9.608 0 001.71-.529c.554-.228 1.1-.492 1.572-.87l.02.023z" fill="#212225"/></svg>
